boxicons/svg/solid/bxs-alarm-off.svg

<svg xmlns="http://www.w3.org/2000/svg" width="24" height="24" viewBox="0 0 24 24"><path d="m20.292 6.708-3.01-3 1.412-1.417 3.01 3zm1.415 13.585-2.287-2.288C20.409 16.563 21 14.837 21 13c0-4.878-4.121-9-9-9-1.838 0-3.563.59-5.006 1.581L5.91 4.496l.788-.79-1.416-1.412-.786.788-.789-.789-1.414 1.414 18 18 1.414-1.414zM17 14h-1.586l-2-2H17v2zm-6-6h2v3.586l-2-2V8zm1 14c1.658 0 3.224-.485 4.574-1.305L4.305 8.426A8.794 8.794 0 0 0 3 13c0 4.878 4.122 9 9 9z"/></svg>

<svg xmlns="http://www.w3.org/2000/svg" width="24" height="24" viewBox="0 0 24 24"><path transform="rotate(-135.093 19.494 4.5)" d="M17.37 3.5H21.62V5.5H17.37z"/><path d="M21.707 20.293l-2.287-2.288C20.409 16.563 21 14.837 21 13c0-4.878-4.121-9-9-9-1.838 0-3.563.59-5.006 1.581L5.91 4.496l.788-.79L5.282 2.294 4.496 3.082 3.707 2.293 2.293 3.707l18 18L21.707 20.293zM17 14h-1.586l-2-2H17V14zM11 8h2v3.586l-2-2V8zM12 22c1.658 0 3.224-.485 4.574-1.305L4.305 8.426C3.484 9.777 3 11.342 3 13 3 17.878 7.122 22 12 22z"/></svg>
